X:232
T:The Old Grist Mill Jig
R:jig
C:Bruce Osborne - Apr. 2005
Z:abc by bosborne@kos.net
M:6/8
L:1/8
K:Amaj
c/B/|Ace fec|aga aec|BAB dcB|Acf ecB|\
Ace fec|aga aec|BAB dcB|AcB A2:|
|:G/A/|BEE EGB|cAA AGA|BEE EGB|AEC A,2 G/A/|\
BEE EGB|cAA AGA|BEE EGB|AcB A2:|
